azure-patterns/svg-dumbbell.svg

<svg xmlns="http://www.w3.org/2000/svg" viewBox="0 0 48 48">
                                
                            
<path d="M2.29868 25.3213H7.89868L7.89868 21.1213H2.29868L2.29868 25.3213Z" fill="#50E6FF"></path>
<path d="M45.9999 21.2H40.3999V25.4H45.9999V21.2Z" fill="#50E6FF"></path>
<path d="M15.3682 25.3213L32.6682 25.3213V21.1213H15.3682V25.3213Z" fill="#50E6FF"></path>
<path d="M37.4001 10.6001H31.1001V35.9001H37.4001V10.6001Z" fill="#0078D4"></path>
<path d="M42.5 13.8H39.2V32.7001H42.5V13.8Z" fill="#0078D4"></path>
<path d="M10.8719 35.9211H17.1719L17.1719 10.6211H10.8719L10.8719 35.9211Z" fill="#0078D4"></path>
<path d="M5.70952 32.7212H9.00952L9.00952 13.8212H5.70952L5.70952 32.7212Z" fill="#0078D4"></path>
</svg>

<svg xmlns="http://www.w3.org/2000/svg" viewBox="0 0 48 48"><path d="M2.299 25.321h5.6v-4.2h-5.6v4.2zM46 21.2h-5.6v4.2H46v-4.2zM15.368 25.321h17.3v-4.2h-17.3v4.2z" fill="#50E6FF"/><path d="M37.4 10.6h-6.3v25.3h6.3V10.6zM42.5 13.8h-3.3v18.9h3.3V13.8zM10.872 35.921h6.3v-25.3h-6.3v25.3zM5.71 32.721h3.3v-18.9h-3.3v18.9z" fill="#0078D4"/></svg>
